X:1
T: Cold Frosty Morning I (Minor-Major)
R: reel
M: 4/4
L: 1/8
K: Ador
|"Am"EDEG A2 A2|ABcd e2 (3DEF|"G"G2BAG2D2|GABcd2D2|
| "Am"EDEGA2A2|ABcde2ed|"Am"cBAc "G"BAG2|"Am"A3BA2D2 :|
|:"A"e2a2a2a2|abag ed^cd|"G"edef gfgf|edBde2e2 |
| "Am"A2A2c2c2|dcd2e2ed|"Am"cBAc "G"BAG2|1"Am"A3BA4:|2"Am"A8|]
